img/logo.svg

<svg xmlns="http://www.w3.org/2000/svg" width="163" height="36">
  <path fill-rule="evenodd" d="M162.692 27.848v7.392h-21.12V1.64h20.88v7.392h-13.2V14.6h12v7.296h-12v5.952h13.44zm-39.6.576c1.696 0 3.24-.367 4.632-1.104 1.392-.736 2.44-1.744 3.144-3.024l6.624 3.84c-1.44 2.4-3.44 4.296-6 5.688-2.56 1.392-5.36 2.088-8.4 2.088-5.024 0-9.192-1.672-12.504-5.016-3.312-3.343-4.968-7.495-4.968-12.456 0-4.96 1.656-9.112 4.968-12.456 3.312-3.343 7.48-5.016 12.504-5.016 3.008 0 5.792.696 8.352 2.088 2.56 1.392 4.576 3.288 6.048 5.688l-6.624 3.84c-.736-1.312-1.792-2.328-3.168-3.048-1.376-.72-2.912-1.08-4.608-1.08-2.976 0-5.352.912-7.128 2.736-1.776 1.824-2.664 4.241-2.664 7.248 0 3.008.888 5.424 2.664 7.248 1.776 1.824 4.152 2.736 7.128 2.736zM93.141 1.64h7.68v33.6h-7.68V1.64zm-24.096 33.6L58.101 1.64h8.4l7.44 24.72 7.44-24.72h8.4l-10.944 33.6h-9.792zM35.061 1.64h20.88v7.392h-13.2V14.6h12v7.296h-12v5.952h13.44v7.392h-21.12V1.64zm-21.119 33.6H.502V1.64h13.44c4.639 0 8.52 1.608 11.64 4.824 3.12 3.216 4.68 7.208 4.68 11.976 0 4.769-1.56 8.76-4.68 11.976-3.12 3.216-7.001 4.824-11.64 4.824zm6.456-23.64c-1.649-1.711-3.801-2.568-6.456-2.568h-5.76v18.816h5.76c2.655 0 4.807-.856 6.456-2.568 1.647-1.711 2.472-3.991 2.472-6.84 0-2.848-.825-5.128-2.472-6.84z"/>
</svg>

<svg 
 xmlns="http://www.w3.org/2000/svg"
 xmlns:xlink="http://www.w3.org/1999/xlink"
 width="163px" height="36px">
<path fill-rule="evenodd"  fill="rgb(0, 0, 0)"
 d="M162.692,27.848 L162.692,35.240 L141.572,35.240 L141.572,1.640 L162.452,1.640 L162.452,9.032 L149.252,9.032 L149.252,14.600 L161.252,14.600 L161.252,21.896 L149.252,21.896 L149.252,27.848 L162.692,27.848 ZM123.092,28.424 C124.788,28.424 126.332,28.057 127.724,27.320 C129.116,26.584 130.164,25.576 130.868,24.296 L137.492,28.136 C136.052,30.536 134.052,32.432 131.492,33.824 C128.932,35.216 126.132,35.912 123.092,35.912 C118.068,35.912 113.900,34.240 110.588,30.896 C107.276,27.553 105.620,23.401 105.620,18.440 C105.620,13.480 107.276,9.328 110.588,5.984 C113.900,2.641 118.068,0.968 123.092,0.968 C126.100,0.968 128.884,1.664 131.444,3.056 C134.004,4.448 136.020,6.344 137.492,8.744 L130.868,12.584 C130.132,11.272 129.076,10.256 127.700,9.536 C126.324,8.816 124.788,8.456 123.092,8.456 C120.116,8.456 117.740,9.368 115.964,11.192 C114.188,13.016 113.300,15.433 113.300,18.440 C113.300,21.448 114.188,23.864 115.964,25.688 C117.740,27.512 120.116,28.424 123.092,28.424 ZM93.141,1.640 L100.821,1.640 L100.821,35.240 L93.141,35.240 L93.141,1.640 ZM69.045,35.240 L58.101,1.640 L66.501,1.640 L73.941,26.360 L81.381,1.640 L89.781,1.640 L78.837,35.240 L69.045,35.240 ZM35.061,1.640 L55.941,1.640 L55.941,9.032 L42.741,9.032 L42.741,14.600 L54.741,14.600 L54.741,21.896 L42.741,21.896 L42.741,27.848 L56.181,27.848 L56.181,35.240 L35.061,35.240 L35.061,1.640 ZM13.942,35.240 L0.502,35.240 L0.502,1.640 L13.942,1.640 C18.581,1.640 22.462,3.248 25.582,6.464 C28.702,9.680 30.262,13.672 30.262,18.440 C30.262,23.209 28.702,27.200 25.582,30.416 C22.462,33.632 18.581,35.240 13.942,35.240 ZM20.398,11.600 C18.749,9.889 16.597,9.032 13.942,9.032 L8.182,9.032 L8.182,27.848 L13.942,27.848 C16.597,27.848 18.749,26.992 20.398,25.280 C22.045,23.569 22.870,21.289 22.870,18.440 C22.870,15.592 22.045,13.312 20.398,11.600 Z"/>
</svg>
